azad_website/azad/static/assets/images/brands/lineicons.svg

<svg width="200" height="26" viewBox="0 0 200 26" fill="none" xmlns="http://www.w3.org/2000/svg">
<path d="M26.2051 13.1635C29.6278 17.8045 33.1086 22.4456 39.9541 22.4456C45.1753 22.4456 49.4103 18.2686 49.4103 13.1635" stroke="url(#paint0_linear)" stroke-width="6" stroke-miterlimit="10"/>
<path d="M3 13.1634C3 8.05828 7.23489 3.88135 12.4561 3.88135C19.3016 3.88135 22.7824 8.52235 26.2051 13.1634" stroke="url(#paint1_linear)" stroke-width="6" stroke-miterlimit="10"/>
<path d="M49.4103 13.1634C49.4103 8.05828 45.1754 3.88135 39.9542 3.88135C33.1087 3.88135 29.6279 8.52235 26.2051 13.1634C22.7824 17.8045 19.3016 22.4455 12.4561 22.4455C7.23489 22.4455 3 18.2685 3 13.1634" stroke="url(#paint2_linear)" stroke-width="6" stroke-miterlimit="10"/>
<path d="M64.9746 25.2933V0.980713H68.1612V22.1221H78.1189V25.2933H64.9746ZM81.3177 6.05464V2.67202H84.5044V6.05464H81.3177ZM81.3177 25.2933V7.74595H84.5044V25.2933H81.3177ZM124.371 6.05464V2.67202H127.558V6.05464H124.371ZM124.371 25.2933V7.74595H127.558V25.2933H124.371ZM102.39 14.1412C102.291 13.4542 102.141 12.7142 101.893 11.9742C101.644 11.2343 101.245 10.5472 100.797 9.91291C100.299 9.27871 99.7015 8.75016 98.9052 8.38024C98.1081 8.01023 97.1622 7.79877 96.0171 7.79877C94.5238 7.79877 93.2785 8.11596 92.2334 8.80306C91.7357 9.12016 91.3371 9.49008 90.9386 9.91291V7.79877H87.7519V25.3462H90.9386V16.6253H90.9882C90.9882 15.5683 91.0883 14.7226 91.3371 13.9826C91.5364 13.2427 91.8349 12.6613 92.2334 12.2385C92.632 11.8157 93.0793 11.4986 93.5779 11.2871C94.0756 11.0758 94.623 10.97 95.2208 10.97C96.1171 10.97 96.8142 11.1814 97.3615 11.5514C97.9097 11.9214 98.3074 12.4499 98.6563 13.0313C98.9548 13.6655 99.1541 14.2998 99.2533 15.0397C99.3534 15.7797 99.403 16.4668 99.403 17.1539V25.3462H102.639V15.9911C102.54 15.4626 102.49 14.8283 102.39 14.1412ZM182.86 14.1412C182.761 13.4542 182.611 12.7142 182.362 11.9742C182.113 11.2343 181.715 10.5472 181.267 9.91291C180.769 9.27871 180.172 8.75016 179.375 8.38024C178.578 8.01023 177.633 7.79877 176.487 7.79877C174.993 7.79877 173.749 8.11596 172.703 8.80306C172.205 9.12016 171.807 9.49008 171.408 9.91291V7.79877H168.221V25.3462H171.408V16.6253H171.459C171.459 15.5683 171.558 14.7226 171.807 13.9826C172.006 13.2427 172.304 12.6613 172.703 12.2385C173.101 11.8157 173.55 11.4986 174.047 11.2871C174.545 11.0758 175.092 10.97 175.69 10.97C176.587 10.97 177.284 11.1814 177.831 11.5514C178.379 11.9214 178.778 12.4499 179.076 13.0313C179.375 13.6655 179.574 14.2998 179.673 15.0397C179.773 15.7797 179.823 16.4668 179.823 17.1539V25.3462H183.059V15.9911C183.01 15.4626 182.96 14.8283 182.86 14.1412ZM119.879 17.4182H121.472C121.571 15.4097 121.372 13.7184 120.775 12.2385C120.177 10.8115 119.281 9.64872 118.136 8.90871C116.941 8.11596 115.497 7.74595 113.854 7.74595C112.261 7.74595 110.816 8.11596 109.622 8.85589C108.427 9.59581 107.481 10.6 106.784 11.9742C106.087 13.2955 105.788 14.8812 105.788 16.6782C105.788 18.3695 106.137 19.9022 106.834 21.2236C107.531 22.5449 108.476 23.5491 109.722 24.2362C110.966 24.9761 112.41 25.3462 114.053 25.3462C115.646 25.3462 117.091 24.9233 118.435 24.1305C119.729 23.3377 120.725 22.175 121.372 20.6951L118.236 19.6908C117.837 20.5365 117.239 21.2236 116.542 21.6464C115.796 22.1221 114.949 22.3335 113.953 22.3335C112.41 22.3335 111.265 21.8578 110.468 20.8536C109.821 20.0079 109.422 18.898 109.323 17.5238H118.435H119.879V17.4182ZM110.319 12.1328C111.116 11.1286 112.311 10.6 113.904 10.6C115.348 10.6 116.443 11.0758 117.14 11.9742C117.638 12.6085 117.987 13.5598 118.136 14.7226H109.223C109.422 13.6655 109.821 12.8199 110.319 12.1328ZM138.424 25.2933C136.731 25.2933 135.287 24.9233 134.092 24.1305C132.897 23.3906 132 22.3335 131.354 21.0122C130.706 19.6909 130.408 18.1581 130.408 16.5196C130.408 14.8283 130.756 13.2955 131.404 11.9742C132.051 10.6529 132.947 9.59581 134.142 8.85589C135.337 8.11596 136.78 7.74595 138.424 7.74595C140.216 7.74595 141.76 8.2216 143.055 9.12016C144.349 10.0186 145.195 11.2871 145.594 12.8199L142.407 13.7184C142.109 12.7671 141.56 12.08 140.863 11.5514C140.166 11.0228 139.321 10.7586 138.374 10.7586C137.329 10.7586 136.482 11.0228 135.785 11.4986C135.088 11.9742 134.59 12.6613 134.292 13.5598C133.943 14.4055 133.793 15.4097 133.793 16.5196C133.793 18.2109 134.192 19.6379 134.989 20.6951C135.735 21.7522 136.881 22.2806 138.424 22.2806C139.469 22.2806 140.266 22.0164 140.913 21.5407C141.56 21.0651 142.058 20.378 142.358 19.4794L145.594 20.2722C145.046 21.9107 144.15 23.1263 142.905 24.0249C141.71 24.8705 140.166 25.2933 138.424 25.2933ZM156.908 25.2933C155.264 25.2933 153.821 24.9233 152.626 24.1834C151.431 23.4434 150.485 22.3864 149.838 21.0651C149.19 19.7437 148.841 18.2109 148.841 16.5196C148.841 14.7755 149.19 13.2427 149.838 11.9214C150.535 10.6 151.431 9.59581 152.675 8.85589C153.87 8.11596 155.315 7.74595 156.908 7.74595C158.551 7.74595 159.995 8.11596 161.189 8.85589C162.385 9.59581 163.331 10.6529 164.028 11.9742C164.675 13.2955 165.023 14.8283 165.023 16.5196C165.023 18.2638 164.675 19.7966 164.028 21.1179C163.381 22.4392 162.435 23.4435 161.189 24.2362C159.945 24.9233 158.551 25.2933 156.908 25.2933ZM156.908 22.2806C158.501 22.2806 159.647 21.7522 160.443 20.6951C161.24 19.6379 161.638 18.2638 161.638 16.5196C161.638 14.7755 161.24 13.4013 160.443 12.3442C159.647 11.2871 158.501 10.7586 156.908 10.7586C155.812 10.7586 154.966 11.0228 154.269 11.4986C153.572 11.9742 153.074 12.6613 152.725 13.507C152.377 14.3526 152.227 15.3568 152.227 16.4668C152.227 18.2109 152.626 19.5851 153.422 20.6422C154.17 21.7522 155.364 22.2806 156.908 22.2806ZM193.378 25.2933C191.386 25.2933 189.743 24.8705 188.448 23.9719C187.204 23.0735 186.407 21.805 186.108 20.2194L189.394 19.6908C189.593 20.5365 190.091 21.2236 190.788 21.7522C191.536 22.2278 192.432 22.4921 193.527 22.4921C194.523 22.4921 195.319 22.2806 195.867 21.8578C196.415 21.435 196.713 20.9065 196.713 20.1665C196.713 19.7437 196.614 19.4266 196.415 19.1623C196.216 18.898 195.817 18.6337 195.17 18.4224C194.523 18.2109 193.577 17.8938 192.282 17.5238C190.888 17.1539 189.743 16.7311 188.896 16.3082C188.05 15.8854 187.453 15.3568 187.104 14.8283C186.756 14.2469 186.556 13.5598 186.556 12.7671C186.556 11.7629 186.805 10.8643 187.353 10.1244C187.901 9.38444 188.647 8.80306 189.593 8.38024C190.539 7.95741 191.684 7.74595 192.979 7.74595C194.224 7.74595 195.369 7.95741 196.365 8.32733C197.361 8.75016 198.158 9.27871 198.755 10.0186C199.353 10.7586 199.751 11.6042 199.85 12.6085L196.565 13.1899C196.464 12.3971 196.066 11.7629 195.469 11.2871C194.822 10.8115 194.025 10.5472 193.029 10.5472C192.083 10.4944 191.287 10.6529 190.689 11.0228C190.091 11.3929 189.793 11.8685 189.793 12.5028C189.793 12.8727 189.892 13.1899 190.142 13.4542C190.39 13.7184 190.839 13.9826 191.485 14.1941C192.133 14.4055 193.129 14.7226 194.423 15.0397C195.817 15.4097 196.913 15.7797 197.71 16.2553C198.506 16.6781 199.104 17.2067 199.452 17.7881C199.801 18.3695 200 19.1095 200 19.9551C200 21.5935 199.402 22.9149 198.207 23.8134C197.112 24.8176 195.469 25.2933 193.378 25.2933Z" fill="black"/>
<defs>
<linearGradient id="paint0_linear" x1="26.2047" y1="17.819" x2="49.4103" y2="17.819" gradientUnits="userSpaceOnUse">
<stop stop-color="#003FFF"/>
<stop offset="0.6883" stop-color="#690AFF"/>
</linearGradient>
<linearGradient id="paint1_linear" x1="3" y1="8.52236" x2="26.223" y2="8.52236" gradientUnits="userSpaceOnUse">
<stop offset="0.2862" stop-color="#E843A1"/>
<stop offset="1" stop-color="#003FFF"/>
</linearGradient>
<linearGradient id="paint2_linear" x1="3" y1="13.1634" x2="49.4284" y2="13.1634" gradientUnits="userSpaceOnUse">
<stop offset="0.16" stop-color="#E843A1"/>
<stop offset="0.84" stop-color="#690AFF"/>
</linearGradient>
</defs>
</svg>

<svg width="200" height="26" fill="none" xmlns="http://www.w3.org/2000/svg"><path d="M26.205 13.164c3.423 4.64 6.904 9.282 13.75 9.282 5.22 0 9.455-4.177 9.455-9.283" stroke="url(#paint0_linear)" stroke-width="6" stroke-miterlimit="10"/><path d="M3 13.163c0-5.105 4.235-9.282 9.456-9.282 6.846 0 10.326 4.641 13.75 9.282" stroke="url(#paint1_linear)" stroke-width="6" stroke-miterlimit="10"/><path d="M49.41 13.163c0-5.105-4.235-9.282-9.456-9.282-6.845 0-10.326 4.641-13.749 9.282-3.423 4.642-6.903 9.282-13.749 9.282C7.235 22.445 3 18.268 3 13.163" stroke="url(#paint2_linear)" stroke-width="6" stroke-miterlimit="10"/><path d="M64.975 25.293V.981h3.186v21.141h9.958v3.171H64.975zM81.318 6.055V2.672h3.186v3.383h-3.186zm0 19.238V7.746h3.186v17.547h-3.186zM124.37 6.055V2.672h3.187v3.383h-3.187zm0 19.238V7.746h3.187v17.547h-3.187zm-21.98-11.152a12.368 12.368 0 00-.497-2.167c-.249-.74-.648-1.427-1.096-2.061-.498-.634-1.096-1.163-1.892-1.533-.797-.37-1.743-.581-2.888-.581-1.493 0-2.739.317-3.784 1.004-.497.317-.896.687-1.294 1.11V7.799h-3.187v17.547h3.187v-8.72h.05c0-1.058.1-1.903.348-2.643.2-.74.498-1.322.896-1.745a3.97 3.97 0 011.345-.95 4.161 4.161 0 011.643-.318c.896 0 1.593.211 2.14.581.549.37.946.899 1.295 1.48.299.634.498 1.269.597 2.009.1.74.15 1.427.15 2.114v8.192h3.236v-9.355c-.099-.528-.149-1.163-.249-1.85zm80.47 0a12.284 12.284 0 00-.498-2.167c-.249-.74-.647-1.427-1.095-2.061-.498-.634-1.095-1.163-1.892-1.533-.797-.37-1.742-.581-2.888-.581-1.494 0-2.738.317-3.784 1.004-.498.317-.896.687-1.295 1.11V7.799h-3.187v17.547h3.187v-8.72h.051c0-1.058.099-1.903.348-2.643.199-.74.497-1.322.896-1.745.398-.422.847-.74 1.344-.95a4.162 4.162 0 011.643-.318c.897 0 1.594.211 2.141.581.548.37.947.899 1.245 1.48.299.634.498 1.269.597 2.009.1.74.15 1.427.15 2.114v8.192h3.236v-9.355c-.049-.528-.099-1.163-.199-1.85zm-62.981 3.277h1.593c.099-2.008-.1-3.7-.697-5.18-.598-1.426-1.494-2.59-2.639-3.33-1.195-.792-2.639-1.162-4.282-1.162-1.593 0-3.038.37-4.232 1.11-1.195.74-2.141 1.744-2.838 3.118-.697 1.322-.996 2.907-.996 4.704 0 1.691.349 3.224 1.046 4.546.697 1.32 1.642 2.325 2.888 3.012 1.244.74 2.688 1.11 4.331 1.11 1.593 0 3.038-.423 4.382-1.215 1.294-.793 2.29-1.956 2.937-3.436l-3.136-1.004c-.399.846-.997 1.533-1.694 1.955-.746.476-1.593.688-2.589.688-1.543 0-2.688-.476-3.485-1.48-.647-.846-1.046-1.956-1.145-3.33h10.556v-.106zm-9.56-5.285c.797-1.004 1.992-1.533 3.585-1.533 1.444 0 2.539.476 3.236 1.374.498.634.847 1.586.996 2.749h-8.913a6.34 6.34 0 011.096-2.59zm28.105 13.16c-1.693 0-3.137-.37-4.332-1.162-1.195-.74-2.092-1.797-2.738-3.119-.648-1.321-.946-2.854-.946-4.492 0-1.692.348-3.224.996-4.546.647-1.321 1.543-2.378 2.738-3.118 1.195-.74 2.638-1.11 4.282-1.11 1.792 0 3.336.476 4.631 1.374 1.294.899 2.14 2.167 2.539 3.7l-3.187.898c-.298-.95-.847-1.638-1.544-2.167-.697-.528-1.542-.792-2.489-.792-1.045 0-1.892.264-2.589.74-.697.475-1.195 1.162-1.493 2.06-.349.847-.499 1.85-.499 2.96 0 1.692.399 3.119 1.196 4.176.746 1.057 1.892 1.586 3.435 1.586 1.045 0 1.842-.265 2.489-.74.647-.476 1.145-1.163 1.445-2.062l3.236.793c-.548 1.639-1.444 2.854-2.689 3.753-1.195.846-2.739 1.268-4.481 1.268zm18.484 0c-1.644 0-3.087-.37-4.282-1.11-1.195-.74-2.141-1.797-2.788-3.118-.648-1.321-.997-2.854-.997-4.545 0-1.745.349-3.277.997-4.599.697-1.321 1.593-2.325 2.837-3.065 1.195-.74 2.64-1.11 4.233-1.11 1.643 0 3.087.37 4.281 1.11 1.196.74 2.142 1.797 2.839 3.118.647 1.322.995 2.854.995 4.546 0 1.744-.348 3.277-.995 4.598-.647 1.321-1.593 2.326-2.839 3.118-1.244.687-2.638 1.057-4.281 1.057zm0-3.012c1.593 0 2.739-.529 3.535-1.586.797-1.057 1.195-2.431 1.195-4.175 0-1.745-.398-3.119-1.195-4.176-.796-1.057-1.942-1.585-3.535-1.585-1.096 0-1.942.264-2.639.74-.697.475-1.195 1.162-1.544 2.008-.348.846-.498 1.85-.498 2.96 0 1.744.399 3.118 1.195 4.175.748 1.11 1.942 1.639 3.486 1.639zm36.47 3.012c-1.992 0-3.635-.422-4.93-1.321-1.244-.899-2.041-2.167-2.34-3.753l3.286-.528c.199.846.697 1.533 1.394 2.061.748.476 1.644.74 2.739.74.996 0 1.792-.211 2.34-.634.548-.423.846-.951.846-1.692 0-.422-.099-.74-.298-1.004-.199-.264-.598-.528-1.245-.74-.647-.211-1.593-.528-2.888-.898-1.394-.37-2.539-.793-3.386-1.216-.846-.423-1.443-.951-1.792-1.48a3.945 3.945 0 01-.548-2.06c0-1.005.249-1.904.797-2.644.548-.74 1.294-1.32 2.24-1.744.946-.423 2.091-.634 3.386-.634 1.245 0 2.39.211 3.386.581.996.423 1.793.952 2.39 1.692.598.74.996 1.585 1.095 2.59l-3.285.58c-.101-.792-.499-1.426-1.096-1.902-.647-.476-1.444-.74-2.44-.74-.946-.053-1.742.106-2.34.476-.598.37-.896.845-.896 1.48 0 .37.099.687.349.951.248.264.697.529 1.343.74.648.211 1.644.529 2.938.846 1.394.37 2.49.74 3.287 1.215.796.423 1.394.952 1.742 1.533.349.581.548 1.322.548 2.167 0 1.639-.598 2.96-1.793 3.858-1.095 1.005-2.738 1.48-4.829 1.48z" fill="#000"/><defs><linearGradient id="paint0_linear" x1="26.205" y1="17.819" x2="49.41" y2="17.819" gradientUnits="userSpaceOnUse"><stop stop-color="#003FFF"/><stop offset=".688" stop-color="#690AFF"/></linearGradient><linearGradient id="paint1_linear" x1="3" y1="8.522" x2="26.223" y2="8.522" gradientUnits="userSpaceOnUse"><stop offset=".286" stop-color="#E843A1"/><stop offset="1" stop-color="#003FFF"/></linearGradient><linearGradient id="paint2_linear" x1="3" y1="13.163" x2="49.428" y2="13.163" gradientUnits="userSpaceOnUse"><stop offset=".16" stop-color="#E843A1"/><stop offset=".84" stop-color="#690AFF"/></linearGradient></defs></svg>
